packages/vapor/resources/icons/svg/source-youtube.svg

<svg image-rendering="optimizeQuality" shape-rendering="geometricPrecision" viewBox="0 0 32 32" xmlns="http://www.w3.org/2000/svg"><path d="m30 32h-28c-1.1 0-2-.9-2-2v-28c0-1.1.9-2 2-2h28c1.1 0 2 .9 2 2v28c0 1.1-.9 2-2 2" fill="#fff"/><path d="m27.5 10.2c-.3-1-1.1-1.9-2.1-2.1-1.9-.6-9.4-.6-9.4-.6s-7.5 0-9.4.5c-1 .3-1.8 1.1-2.1 2.1-.5 2-.5 5.9-.5 5.9s0 3.9.5 5.8c.3 1 1.1 1.9 2.1 2.1 1.9.5 9.4.5 9.4.5s7.5 0 9.4-.5c1-.3 1.8-1.1 2.1-2.1.5-1.9.5-5.8.5-5.8s0-3.9-.5-5.8z" fill="#f00"/><path d="m13.5 19.6 6.3-3.6-6.3-3.6z" fill="#fff"/><path d="m30 2v28h-28v-28zm0-2h-28c-1.1 0-2 .9-2 2v28c0 1.1.9 2 2 2h28c1.1 0 2-.9 2-2v-28c0-1.1-.9-2-2-2z" fill="#bcc3ca"/></svg>

<svg version="1.1" id="Layer_1" image-rendering="optimizeQuality" shape-rendering="geometricPrecision" xmlns="http://www.w3.org/2000/svg" x="0" y="0" viewBox="0 0 32 32" xml:space="preserve"><style>.st0{fill:#fff}</style><path class="st0" d="M30 32H2c-1.1 0-2-.9-2-2V2C0 .9.9 0 2 0h28c1.1 0 2 .9 2 2v28c0 1.1-.9 2-2 2"/><g id="XMLID_184_"><path id="XMLID_182_" d="M27.5 10.2c-.3-1-1.1-1.9-2.1-2.1-1.9-.6-9.4-.6-9.4-.6s-7.5 0-9.4.5c-1 .3-1.8 1.1-2.1 2.1C4 12.1 4 16 4 16s0 3.9.5 5.8c.3 1 1.1 1.9 2.1 2.1 1.9.5 9.4.5 9.4.5s7.5 0 9.4-.5c1-.3 1.8-1.1 2.1-2.1.5-1.9.5-5.8.5-5.8s0-3.9-.5-5.8z" fill="red"/><path id="XMLID_1355_" class="st0" d="M13.5 19.6l6.3-3.6-6.3-3.6z"/></g><path d="M30 2v28H2V2h28m0-2H2C.9 0 0 .9 0 2v28c0 1.1.9 2 2 2h28c1.1 0 2-.9 2-2V2c0-1.1-.9-2-2-2z" fill="#bcc3ca"/></svg>
